assets/icons/youtube_mobile.svg

<svg width="40" height="40" viewBox="0 0 40 40" fill="none" xmlns="http://www.w3.org/2000/svg">
<path fill-rule="evenodd" clip-rule="evenodd" d="M20 0C8.95431 0 0 8.9543 0 20C0 31.0457 8.95431 40 20 40C31.0457 40 40 31.0457 40 20C40 8.9543 31.0457 0 20 0ZM28.3348 13.1238C29.2528 13.3757 29.9757 14.1179 30.221 15.0604C30.6668 16.7685 30.6668 20.3327 30.6668 20.3327C30.6668 20.3327 30.6668 23.8967 30.221 25.605C29.9757 26.5475 29.2528 27.2897 28.3348 27.5417C26.6713 27.9993 20.0002 27.9993 20.0002 27.9993C20.0002 27.9993 13.329 27.9993 11.6654 27.5417C10.7474 27.2897 10.0245 26.5475 9.77919 25.605C9.3335 23.8967 9.3335 20.3327 9.3335 20.3327C9.3335 20.3327 9.3335 16.7685 9.77919 15.0604C10.0245 14.1179 10.7474 13.3757 11.6654 13.1238C13.329 12.666 20.0002 12.666 20.0002 12.666C20.0002 12.666 26.6713 12.666 28.3348 13.1238Z" fill="white"/>
<path d="M18 24.0007V17.334L23.3333 20.6674L18 24.0007Z" fill="white"/>
</svg>

<svg xmlns="http://www.w3.org/2000/svg" width="40" height="40" fill="none"><path fill="#fff" fill-rule="evenodd" d="M20 0C8.954 0 0 8.954 0 20s8.954 20 20 20 20-8.954 20-20S31.046 0 20 0Zm8.335 13.124c.918.252 1.64.994 1.886 1.936.446 1.708.446 5.273.446 5.273s0 3.564-.446 5.272a2.709 2.709 0 0 1-1.886 1.937c-1.664.457-8.335.457-8.335.457s-6.671 0-8.335-.457a2.709 2.709 0 0 1-1.886-1.937c-.445-1.708-.445-5.272-.445-5.272s0-3.564.445-5.273a2.708 2.708 0 0 1 1.886-1.936c1.664-.458 8.335-.458 8.335-.458s6.671 0 8.335.458Z" clip-rule="evenodd"/><path fill="#fff" d="M18 24v-6.666l5.333 3.333L18 24.001Z"/></svg>
